src/assets/Icons/icon_shop.svg

<svg width="24" height="24" viewBox="0 0 24 24" fill="none" xmlns="http://www.w3.org/2000/svg">
<path d="M20.485 3H16.493L16.993 8C16.993 8 17.993 9 19.493 9C20.2804 9.00104 21.0411 8.71441 21.632 8.194C21.6945 8.13563 21.741 8.0623 21.7673 7.98094C21.7935 7.89958 21.7986 7.81287 21.782 7.729L21.076 3.5C21.0524 3.36029 20.9801 3.23345 20.8719 3.14194C20.7638 3.05042 20.6267 3.00014 20.485 3V3Z" stroke="black" stroke-width="1.5"/>
<path d="M16.493 3L16.993 8C16.993 8 15.993 9 14.493 9C12.993 9 11.993 8 11.993 8V3H16.493Z" stroke="black" stroke-width="1.5"/>
<path d="M11.993 3V8C11.993 8 10.993 9 9.49301 9C7.99301 9 6.99301 8 6.99301 8L7.49301 3H11.993Z" stroke="black" stroke-width="1.5"/>
<path d="M7.49301 3H3.50201C3.36001 2.99995 3.22258 3.05026 3.11419 3.142C3.00579 3.23373 2.93344 3.36094 2.91001 3.501L2.20501 7.73C2.18853 7.81387 2.19366 7.90055 2.2199 7.98189C2.24614 8.06324 2.29263 8.13657 2.35501 8.195C2.68301 8.485 3.41601 9.001 4.49301 9.001C5.99301 9.001 6.99301 8.001 6.99301 8.001L7.49301 3.001V3Z" stroke="black" stroke-width="1.5"/>
<path d="M3 9V19C3 19.5304 3.21071 20.0391 3.58579 20.4142C3.96086 20.7893 4.46957 21 5 21H19C19.5304 21 20.0391 20.7893 20.4142 20.4142C20.7893 20.0391 21 19.5304 21 19V9" stroke="black" stroke-width="1.5"/>
<path d="M14.833 21V15C14.833 14.4696 14.6223 13.9609 14.2472 13.5858C13.8721 13.2107 13.3634 13 12.833 13H10.833C10.3026 13 9.79387 13.2107 9.41879 13.5858C9.04372 13.9609 8.83301 14.4696 8.83301 15V21" stroke="black" stroke-width="1.5" stroke-miterlimit="16"/>
</svg>

<svg xmlns="http://www.w3.org/2000/svg" width="24" height="24" fill="none" stroke="#000" stroke-width="1.5" xmlns:v="https://vecta.io/nano"><path d="M20.485 3h-3.992l.5 5s1 1 2.5 1a3.23 3.23 0 0 0 2.139-.806c.063-.058.109-.132.135-.213s.031-.168.015-.252L21.076 3.5a.6.6 0 0 0-.591-.5h0z"/><path d="M16.493 3l.5 5s-1 1-2.5 1-2.5-1-2.5-1V3h4.5z"/><path d="M11.993 3v5s-1 1-2.5 1-2.5-1-2.5-1l.5-5h4.5z"/><path d="M7.493 3H3.502a.6.6 0 0 0-.592.501L2.205 7.73c-.016.084-.011.171.015.252s.073.155.135.213c.328.29 1.061.806 2.138.806 1.5 0 2.5-1 2.5-1l.5-5V3z"/><path d="M3 9v10a2 2 0 0 0 2 2h14a2 2 0 0 0 2-2V9"/><path d="M14.833 21v-6a2 2 0 0 0-2-2h-2a2 2 0 0 0-2 2v6" stroke-miterlimit="16"/></svg>
